icon-themes/breeze_svg/cmd/lc_customshowdialog.svg

<svg viewBox="0 0 24 24" xmlns="http://www.w3.org/2000/svg"><path d="m3 4v12h18v-12zm1 1h16v10h-16zm8 3c-.552284 0-1 .447715-1 1s.447716 1 1 1c.552285 0 1-.447715 1-1s-.447715-1-1-1zm-1.320312 3c-.431454.379197-.679039.925595-.679688 1.5v.5h4v-.5c-.000648-.574405-.248236-1.120803-.679688-1.5zm-.679688 6v2h-1v1h6v-1h-1v-2h-1v2h-2v-2z" fill="#4d4d4d"/></svg>

<svg viewBox="0 0 24 24" xmlns="http://www.w3.org/2000/svg">
  <path
     style="fill:#4d4d4d"
     d="M 3 4 L 3 16 L 21 16 L 21 4 L 3 4 z M 4 5 L 20 5 L 20 15 L 4 15 L 4 5 z M 12 8 C 11.447716 8 11 8.447715 11 9 C 11 9.552285 11.447716 10 12 10 C 12.552285 10 13 9.552285 13 9 C 13 8.447715 12.552285 8 12 8 z M 10.679688 11 C 10.248234 11.379197 10.000649 11.925595 10 12.5 L 10 13 L 14 13 L 14 12.5 C 13.999352 11.925595 13.751764 11.379197 13.320312 11 L 10.679688 11 z M 10 17 L 10 19 L 9 19 L 9 20 L 15 20 L 15 19 L 14 19 L 14 17 L 13 17 L 13 19 L 11 19 L 11 17 L 10 17 z "
     />
</svg>
